X: 4354
T: I AM A FOWLER. (Magic Flute.)
%R: air, march, reel
B: James Kerr "Merry Melodies" v.4 p.37 #354
Z: 2016 John Chambers <jc:trillian.mit.edu>
M: 2/4
L: 1/16
K: G
(BA) |\
G2G2 AGFG | A2B2A2 (AF) |\
D3D d3d | B2A2G2 (GB) |\
AGFG AGFG | A2d2A3A |\
d3d A3A | F2E2D2 ||
|: (DF) |\
A2A2 BAGA | B2A2G2d2 |\
F2F2 AGFG | A2B2A2F2 |\
G2(G/A/B/c/) d2c2 | B2(G/A/B/c/) d2(GA) |\
B3d dcBA | G2B2G2 :|

%%sep 1 1 500
%%sep 1 1 500

